X:1
T:The Road Tae Dundee
M:3/4
L:1/8
K:E
B-A| G4 GG| G2 F3 E| E4 DC| B,2 E3 G| A4 Bc| B4 _B=B| E4 DE| F4 BA|\
 G4 GG| G2 F3 E| E4 DC| B,2 E3 G| A2 B2 c2| B4 GE| A2 F2 D2| E6-| E4||\


